repost.svg

<?xml version="1.0" ?><svg height="100px" version="1.1" viewBox="0 0 100 100" width="100px" xmlns="http://www.w3.org/2000/svg" xmlns:xlink="http://www.w3.org/1999/xlink"><title/><desc/><defs/><g fill="none" fill-rule="evenodd" id="Page-2" stroke="none" stroke-width="1"><g fill="#000000" id="Duplicate-Mono"><path d="M45.5,14 L78.5,14 L86,14 L86,21.5 L86,54.5 L86,62 L78,62 L78,70 L86,70 C90.418278,70 94,66.4092877 94,62 L94,54.5 L94,21.5 L94,14 C94,9.581722 90.4092877,6 86,6 L78.5,6 L45.5,6 L38,6 C33.581722,6 30,9.59071231 30,14 L30,22 L38,22 L38,14 L45.5,14 L45.5,14 L45.5,14 Z M6,38.0085154 C6,33.5855345 9.57805502,30 14.0085154,30 L61.9914846,30 C66.4144655,30 70,33.578055 70,38.0085154 L70,85.9914846 C70,90.4144655 66.421945,94 61.9914846,94 L14.0085154,94 C9.58553448,94 6,90.421945 6,85.9914846 L6,38.0085154 L6,38.0085154 Z M14,38 L62,38 L62,86 L14,86 L14,38 L14,38 Z" id="Shape"/></g></g></svg>

<svg height="100" width="100" xmlns="http://www.w3.org/2000/svg">
  <path d="M45.5 14H86v48h-8v8h8c4.418 0 8-3.59 8-8V14c0-4.418-3.59-8-8-8H38c-4.418 0-8 3.59-8 8v8h8v-8h7.5zM6 38.009A8.004 8.004 0 0 1 14.009 30H61.99A8.004 8.004 0 0 1 70 38.009V85.99A8.004 8.004 0 0 1 61.991 94H14.01A8.004 8.004 0 0 1 6 85.991V38.01zM14 38h48v48H14V38z" fill="#000" fill-rule="evenodd"/>
</svg>
